X:103
T:Tripping Up the Stairs
M:6/8
L:1/8
R:Jig
K:D
"D"FAA "G"GBB|"D"FAd fed|"A"cBc ABc|"D"dfe "A"dAG|
"D"FAA "G"GBB|"D"FAd fed|"A"cBc ABc|1 "D"dfe d2z:|2 "D"dfe d2c||
|:"Bm"dBB fBB|fgf fed|"A"cAA eAA|efe edc|
"Bm"dBB fBB|faf fed|"A"cBc ABc|1 "D"dfe d2c:|2 "D"dfe d2A||
